X: 1
T: Girls At Martinfield, The
M: 4/4
L: 1/8
R: reel
K: Emaj
GF|:E2 E/2E/2E BEGB|E/2E/2E B/2B/2B e/2e/2e ge|fece BeGB|ceBG AFDF|
E2 E/2E/2E BEGB|E/2E/2E B/2B/2B e/2e/2e ge|fece BeGB|1BeGF E2 GF:|2BeGF E2 EF|
|:[G2B2]GF GBcB|ec c/2c/2B ceBe|cc'c'b c'3 c'|bc'ef gfgb|
c'e e/2e/2e fece|BeGE FECE|B,E E/2E/2E EGcG|1BGFG E2 EF:|2BGFG E2||
